!!!COM: Mozart
!!!OTL: Sechs Variationen in F uber die Arie 'Salve tu, Domine' aus der Oper 'I filosofi immaginarii' 
!!!Variation: Variation 3 a
**function	**harm	**kern	**kern
*	*	*clefF4	*clefG2
*	*	*k[b-]	*k[b-]
*M3/4	*M3/4	*M3/4	*M3/4
*F:	*F:	*F:	*F:
=67	=67	=67	=67
2.T	2.I	16FFLL	4c 4f 4a 4cc
.	.	16F	.
.	.	16A	.
.	.	16FJJ	.
.	.	16CLL	[4a [4cc
.	.	16F	.
.	.	16AA	.
.	.	16CJJ	.
.	.	16FFLL	8.aL] 8.cc]
.	.	16AA	.
.	.	16C	.
.	.	16FJJ	16b-Jk 16dd
=68	=68	=68	=68
2.T	2.I	16FFLL	[4a [4cc
.	.	16F	.
.	.	16A	.
.	.	16FJJ	.
.	.	16CLL	8.aL] 8.cc]
.	.	16F	.
.	.	16AA	.
.	.	16CJJ	16gJk 16b-
.	.	16FFLL	4f 4a
.	.	16AA	.
.	.	16C	.
.	.	16FJJ	.
=69	=69	=69	=69
2.T	2.I	16FFLL	4c 4a
.	.	16F	.
.	.	16A	.
.	.	16FJJ	.
.	.	16CLL	[4c [4a
.	.	16F	.
.	.	16AA	.
.	.	16CJJ	.
.	.	16FFLL	8.cL] 8.a]
.	.	16AA	.
.	.	16C	.
.	.	16FJJ	16dJk 16b-
=70	=70	=70	=70
2.T	2.I	16FFLL	[4c [4a
.	.	16F	.
.	.	16A	.
.	.	16FJJ	.
.	.	16CLL	8.cL] 8.a]
.	.	16F	.
.	.	16AA	.
.	.	16CJJ	16B-Jk 16g
.	.	16FFLL	4A 4f
.	.	16AA	.
.	.	16C	.
.	.	16FJJ	.
=71	=71	=71	=71
2.T	2.V	16CCLL	4G 4c 4e 4g
.	.	16C	.
.	.	16E	.
.	.	16CJJ	.
.	.	16GGLL	4c 4e 4g
.	.	16C	.
.	.	16EE	.
.	.	16GGJJ	.
.	.	16CCLL	4c 4e 4g
.	.	16EE	.
.	.	16GG	.
.	.	16CJJ	.
=72	=72	=72	=72
2.T	2.Ic	16CCLL	4c [4f [4a
.	.	16C	.
.	.	16F	.
.	.	16CJJ	.
.	.	16AALL	8.fL] 8.a]
.	.	16C	.
.	.	16FF	.
.	.	16AAJJ	16eJk 16g#
.	.	16CCLL	4f 4a
.	.	16FF	.
.	.	16AA	.
.	.	16CJJ	.
=73	=73	=73	=73
2.T	2.Ic	16CCLL	4c 4f 4a
.	.	16C	.
.	.	16F	.
.	.	16CJJ	.
.	.	16AALL	4c 4f 4a
.	.	16C	.
.	.	16FF	.
.	.	16AAJJ	.
.	.	16CCLL	4c 4f# 4a
.	.	16FF#	.
.	.	16AA	.
.	.	16CJJ	.
=74	=74	=74	=74
2.T	2.V7	16CCLL	4c 4e [4g [4b-
.	.	16C	.
.	.	16E	.
.	.	16CJJ	.
.	.	16GGLL	8.gL] 8.b-]
.	.	16C	.
.	.	16EE	.
.	.	16GGJJ	16f#Jk 16a
.	.	16CCLL	4g 4b-
.	.	16EE	.
.	.	16GG	.
.	.	16CJJ	.
=75	=75	=75	=75
*	*	*	*^
4T	4I	16FFFLL	8.aL	4f
.	.	16AAA	.	.
.	.	16CC	.	.
.	.	16FFJJ	16ccJk	.
4T	4Ib	16AAALL	8cL 8f	4r
.	.	16CC	.	.
.	.	16FF	8cJ 8f	.
.	.	16AAJJ	.	.
4T	4V	16CCLL	8eL 8g	4r
.	.	16EE	.	.
.	.	16GG	8eJ 8g	.
.	.	16CJJ	.	.
=76	=76	=76	=76	=76
4T	4I	16FFLL	8.aL	4f
.	.	16AA	.	.
.	.	16C	.	.
.	.	16FJJ	16ccJk	.
4T	4Ib	16AALL	8cL 8f	4r
.	.	16C	.	.
.	.	16F	8cJ 8f	.
.	.	16AJJ	.	.
4T	4V	16CLL	8eL 8g	4r
.	.	16E	.	.
.	.	16G	8eJ 8g	.
.	.	16cJJ	.	.
*	*	*	*v	*v
=77	=77	=77	=77
4T	4I	4F	16aLL
.	.	.	16ff
.	.	.	16cc
.	.	.	16aJJ
4P	4iib	4BB- 4G	16gLL
.	.	.	16dd
.	.	.	16b-
.	.	.	16gJJ
4D	4V7	4C 4B-	16eLL
.	.	.	16b-
.	.	.	16g
.	.	.	16eJJ
=78	=78	=78	=78
*	*	*^	*
4.T	4.I	4A	[4.F	8f
.	.	.	.	4ff
.	.	[8c	.	.
*	*	*v	*v	*
*-	*-	*-	*-
